X:95
T:Game of Love (reel), The 
B:CRE2.293 (Cluiche an GhrÃÂÃÂÃÂÃÂ¡)
F:file ID: cre.2/095game_L
S:Peter O'Loughlin (Clare)
L:1/8
M:C
R:reel
Q:180
K:Em
dc||BEE2 GBdB|ADFD FAed|BEE2 GABc|dBAc BEE2|
GBdg egdB|ADFD FAed|BEE2 GABc|dBAc BEE2||
e3e efge|defa afed|Bdef gfge|dBAc BEE2|
e2ee efge|defa afef|g2bg fagf|edef gfed||

%%%

